public/assets/tracks/open-innovation.svg

<svg fill="none" height="114" viewBox="0 0 120 114" width="120" xmlns="http://www.w3.org/2000/svg"><path d="m47.2764 92.0591v-.6282c0-4.6671-3.0664-8.7354-6.9056-11.6472-5.011-3.7948-8.6559-8.9749-10.4302-14.8233-1.7743-5.8483-1.5903-12.0758.5267-17.8205 2.1169-5.7447 6.062-10.7225 11.2893-14.2444 5.2272-3.5219 11.4781-5.4138 17.8875-5.4138s12.6603 1.8919 17.8876 5.4138 9.1724 8.4997 11.2893 14.2444 2.301 11.9722.5267 17.8205c-1.7743 5.8484-5.4192 11.0285-10.4302 14.8233-3.8454 2.9176-6.9118 6.9801-6.9118 11.6472v.6282m-24.7293 0v11.7409c0 1.557.6514 3.05 1.8108 4.151s2.7319 1.72 4.3715 1.72h12.3647c1.6396 0 3.2121-.619 4.3715-1.72s1.8108-2.594 1.8108-4.151v-11.7409m-24.7293 0h24.7293m37.0943-35.2237h6.182m-105.0995 0h-6.18232m55.64092-46.96479v-5.87061m34.9733 19.6254 4.3709-4.1505m-74.3114 4.1505-4.3771-4.1505m39.3443 54.9724v-11.7412" stroke="#fff" stroke-linecap="round" stroke-linejoin="round" stroke-width="7.793"/></svg>

<svg xmlns="http://www.w3.org/2000/svg" width="120" height="114" fill="none" viewBox="0 0 120 114"><path stroke="#fff" stroke-linecap="round" stroke-linejoin="round" stroke-width="7.793" d="M47.2764 92.0591V91.4309C47.2764 86.7638 44.21 82.6955 40.3708 79.7837C35.3598 75.9889 31.7149 70.8088 29.9406 64.9604C28.1663 59.1121 28.3503 52.8846 30.4673 47.1399C32.5842 41.3952 36.5293 36.4174 41.7566 32.8955C46.9838 29.3736 53.2347 27.4817 59.6441 27.4817C66.0535 27.4817 72.3044 29.3736 77.5317 32.8955C82.759 36.4174 86.7041 41.3952 88.821 47.1399C90.9379 52.8846 91.122 59.1121 89.3477 64.9604C87.5734 70.8088 83.9285 75.9889 78.9175 79.7837C75.0721 82.7013 72.0057 86.7638 72.0057 91.4309V92.0591M47.2764 92.0591V103.8C47.2764 105.357 47.9278 106.85 49.0872 107.951C50.2466 109.052 51.8191 109.671 53.4587 109.671H65.8234C67.463 109.671 69.0355 109.052 70.1949 107.951C71.3543 106.85 72.0057 105.357 72.0057 103.8V92.0591M47.2764 92.0591H72.0057M109.1 56.8354H115.282M10.1825 56.8354H4.00018M59.6411 9.87061V4M94.6144 23.6254L98.9853 19.4749M24.6739 23.6254L20.2968 19.4749M59.6411 74.4473V62.7061"/></svg>
